X:51
T:Geese in the Bog
Z: id:dc-jig-41
M:6/8
L:1/8
K:D Major
B|AFE EFE|DED D2B|AFE EFE|DFA B2B|!
AFE EFE|DED D2f|gfe fdB|AFA B2:|!
A|d2e fdB|AFA AFA|d2e fdB|AFA B2A|!
d2e fdB|AFA A2f|gfe fdB|AFA B2:|!
A|Add fdd|edd fdd|Add fdB|AFA B2A|!
Add fdd|edd fef|gfe fdB|AFA B2:|!
A|DFA dAF|DFA BGE|DFA dAF|DFA B2A|!
DFA dAF|DFA def|gfe fdB|AFA B2:|!
A|def def|dAF DFA|def dAF|DFA B2A|!
def def|ded def|gfe fdB|AFA B2:|!

